X:55
T: Crashing at Quinlin's
C: BB
R: reel
Q: 1/8=350
M: 4/4
L: 1/8
K: D
D|"A"E2 AE "D"FD (3DED|"Bm"d2 fd "Bm7"(3Bcd AF|"Em"EFGE "Bm"FAdB|\
"D"ABAF "Em"E2 GF|
"A"E2 AE "D"FD (3DED|"Bm"d2 fd "Bm7"BdAF|"G"GBBd "D"FAdf|"A"ecAc "D"d3 :|
A|"Bm"B2 fB "Bm7"aBfB|"G"dB"A"cA "Bm"BdAF|"Bm"B2 fB "Bm7"aBfB|\
"D"dB"A"Ac "D"d3 A|
"Bm"B2 fB "Bm7"aBfB|"G"dB"A"cA "Bm"BdAF|"A7"EGAc "D"defa|"A"gece "D"d3 :|
